X: 1
T: Lady Harriet Hope's Reel  [G]
C: Robert Kackintosh
R: reel
Z: John Chambers <jc:trillian.mit.edu> from a handwritten ms. by B.McOwen
M: C|
L: 1/8
K: G
d \
|: "G"g2dB "C"ecBA | "G"d2BG "D"FAFD \
| "G"g2dB "C"ecBA | "D"BdFA "G"BGG2 :|
|: "G"B,DGD "Am"CEAG | "D"FAdc "G"BgdB \
|1 "G"B,DGD "Am"CEAG | "D"FADc BGG2 \
:|2 "C"ecBA "G"dBAG | "D"FADc "G"BGG2 |]
